X:2425
T:Untitled
C:Traditional
O:Isle of Man
S:Coll. Mona Douglas 
N:See KV 62
Z:Kiaull Vannin 425 
M:6/8 
Q:140 
K:G 
G2A B2B|AGE E3|G2E E2A|D3-D3|cEc BDB|AGE E3|GFE FGA|G3-G3| 
cEc BDB|BdB G3|dBc ded|A3-A3|G2A BcB|AGA B3|A2G G2E|D3-D3|| 

